X: 4
T: An Ghaoth Aniar-Aneas
T: The Southwest Wind
M: 6/8
L: 1/8
R: jig
K: Dmix
|: E/F/G |\
A2 A AdB | cAG E2 F | DGG DE/F/G | AGE cGE |
AB/A/G AdB | cAG E2 F | D2 G AGE | GED D- :|
|: De |\
f2 d edc | Adc A2 e | f2 d ef/e/d | cA^G A2 e |
fdd ed/d/d | cAB c2 d | cAG EAG | ED/D/D D- :|
